X: 34045
T: Reel De Gaspé
R: reel
M: 4/4
K: Dmajor
e|:"D"f2ef e2d2|FAFA B2A2|"G"g2fg "Em"f2ed|"A7"BABc B2A2|
"D"f2ef e2d2|FAFA B2A2|"G"g2fg "Em"f2ed|1 "A7"B2 c2 "D"d3e:|2 "A7"B2 c2 "D"d3d||
|:"A7"e2f2 g2fe|"D"f2g2a4|"A7"e2f2 gfed|"G"BABc "D"B2A2|
"A"e2f2 g2fe|"D"f2g2a4|"A7"b2a2 gfed|1 B2c2"D"d3d:|2 B2c2 "D"d3e||

